X:3
T:Skyeman's Jig
C:Duncan Johnstone
L:1/8
R:Jig
M:6/8
K:D
Q:"118 bpm"
[|: {g}A{d}A{e}A {gef}e2 d | {g}efg {ef}e2 d | {gBd}B2 {e}G {g}G{d}G{e}G | {g}dB{d}G {gBd}B2 e |
{g}A{d}A{e}A {gef}e2 d | {g}efg {ef}e2 d | {gef}e2 d {gf}g2 G | {g}B{d}A{e}A {GAG}A2 e :|]
[| a2{GdG}a {f}g2 e | {g}edg {ef}e2 d | {gBd}B2 {e}G {g}G{d}G{e}G | {g}dB{d}G {gBd}B2 e |
 a2{GdG}a {f}g2 e | {g}edg {ef}e2 d | {gef}e2 d {gf}g2 G | {g}B{d}A{e}A {g}Ade |
 a2{GdG}a {f}g2 e | {g}edg {ef}e2 d | {gBd}B2 {e}G {g}G{d}G{e}G | {g}dB{d}G {gBd}B2 e |
 {g}A{d}A{e}A {gef}e2 d | {g}efg {ef}e3  [M:9/8] | {g}ed{G}d gB{d}G {g}B{d}A{e}A [M:2/4] "Slow Air Tempo" | {GAG}A4 |]

